X:1
T:Deus adiuva me
T:Deus adiuva me
T:Lorenz Lemlin
T:Source : Trium vocom cantiones---Nürnberg---J.Petreius---1541. Editor : André Vierendeels (08/04/16).
T:Notes : Original clefs : C3, C3, F4 Editorial accidentals above the staff Note values have been halved 
T:©
T:©
T:©
C:Lorenz Lemlin
Z:©
%%score [ 1 2 3 ]
L:1/8
Q:1/4=85
M:2/2
K:F
V:1 treble nm="Alto" snm="A"
V:2 treble-8 nm="Tenor" snm="T"
V:3 bass nm="Bass" snm="B"
V:1
 F8 | C4 F4 | E3 D EF G2- | GF F4 E2 | F2 C2 D2 C2 | F4 z2 D2 | E2 D2 G3 F | E2 D2 G3 F | %8
w: De-|us, ad-|iu- * * * *|* * * va|me, ad- iu- va|me, ad|iu- va me, _|_ _ _ _|
 ED C4 C2 | D2 E2 F4 | E4 z2 E2 | D2 C2 E2 DC | D2 E2 F2 G2- | GF F4 E2 | F2 D2 C4 | C8- | C8 | %17
w: * * * ad-|iu- va me,|_ ad-|iu- tor me- us et|li- be- ra- tor-|* * me- *|* us es-|tu,|_|
 z4 C4 | C4 F4 | C4 F4 | E3 D EF G2- | GF F4 E2 | F4 z2 D2 | C2 A,2 B,4 | A,4 F,4 | z2 C2 D4 | %26
w: Do-|mi- ne|ne mo-|re- * * * *||ris, ne-|mo- * re-|ris, ne|mo- re-|
 C8 |] %27
w: ris.|
V:2
 z8 | z4 c4 | c4 G2 c2- | c2 A2 G4 | F4 z2 c2 | d2 c2 f4 | z2 d2 e2 d2 | g3 f e3 d | c3 B A3 G | %9
w: |De-|us, ad iu-|* * va|me, ad-|iu- va me,|ad- iu- va|me, ad- iu- *||
"^-natural" AB c4 B2 | c4 z2 c2 | B2 c2 c2 BA | B2 c2 d2 B2 | c2 F2 G4 | F8 | z2 G2 G2 A2 | %16
w: * * * va|me, ad-|iu- tor me- us et|li- be- ra- tor|me- us es-|tu,|li- be- ra-|
 A2 GF G2 A2- | A2 GF G4 | A8 | z4 c4 | c4 G2 c2- | c2 A2 G4 | F8 | z2 c2 d4 | c2 A2 d4 | %25
w: tor _ _ _ me-||us,|Do-|mi- ne ne|_ mo- re-|ris,|Do- mi-|ne ne mo-|
 c2 A2 B4 | A8 |] %27
w: * * re-|ris.|
V:3
 F,8- | F,8 | C,8- | C,8 | F,8- | F,8 | G,8- | G,8 | A,4 F,4- | F,2 E,2 D,4 | C,8 | z8 | %12
w: De-||us,|_|De-||us,|_|ad- iu-|* * va|me,||
 z2 C,2 B,,2 G,,2 | C,2 D,2 C,4 | A,,2 B,,2 F,,4 | C,3 D, E,2 F,2- | F,2 E,D, E,2 F,2 | C,8 | F,8 | %19
w: et li- be-|ra- tor me-|us es tu,|es _ _ _|_ _ _ _ _|tu,|Do-|
 F,4 F,4 | C,4 C,4 | C,8 | F,,4 B,,4 | A,,2 F,,2 B,,4 | F,,4 z2 B,,2 | A,,2 F,,2 B,,4 | F,,8 |] %27
w: mi- ne|ne mo-|re-|ris, ne|mo- * re-|ris, ne|mo- * re-|ris|

